X: 221
T: Sir Alex:r McDonald's Reel
R: reel
B: Robert Bremner "A Collection of Scots Reels or Country Dances" p.22 #1
S: http://imslp.org/wiki/A_Collection_of_Scots_Reels_or_Country_Dances_(Bremner,_Robert)
Z: 2013 John Chambers <jc:trillian.mit.edu>
%%text In this Reel the 1st part is play'd twice over between the 2d & last parts.
P: AABBAACC
M: C|
L: 1/8
K: D
% - - - - - - - - - - - - - - - - - - - - - - - - -
V: 1
|:\
FA-A(f/g/ a)fed | gfed BdBA |\
FA-A(f/g/ a)fed | (e/f/g) (f/g/a) Te2d2 :|
|:\
FAA>B A>BAF | G/G/G G2 GABG |\
FA-A>B A>BAF | GBAF TE2D2 :|
|:\
(f/g/a) a>b a>baf | g/g/g g2 g>aba |\
(f/g/a) a>b a>baf | gafg Te2Hd2 :|
% - - - - - - - - - - - - - - - - - - - - - - - - -
V: 2 clef=bass middle=d
|:\
d2d2 d2d2 | e2e2 e2e2 |\
d2d2 d2d2 | g2a2 a2d2 :|\
|:\
d2d2 d2d2 | g2g2 g2g2 |\
d2d2 d2d2 |
g2a2 a2d2 :|\
|:\
d'2d'2 d'2d'2 | e'2e'2 e'2e'2 |\
d'2d'2 d'2d'2 | g2a2 a2d2 :|
% - - - - - - - - - - - - - - - - - - - - - - - - -

%%sep 1 1 500
%%sep 1 1 500
